src/assets/duotone/ColorsSquare.svg

<svg width="24" height="24" viewBox="0 0 24 24"  xmlns="http://www.w3.org/2000/svg">
<path opacity="0.4" d="M16.19 2H7.82001C4.17001 2 2 4.17 2 7.81V16.18C2 19.82 4.17 21.99 7.81 21.99H16.18C19.82 21.99 21.99 19.82 21.99 16.18V7.81C22 4.17 19.83 2 16.19 2Z" />
<path opacity="0.6" d="M13.2 14.4002C13.2 15.4602 12.74 16.4202 12 17.0802C11.36 17.6602 10.52 18.0002 9.59998 18.0002C7.60998 18.0002 6 16.3902 6 14.4002C6 12.7402 7.13002 11.3402 8.65002 10.9302C9.06002 11.9702 9.94999 12.7802 11.05 13.0802C11.35 13.1602 11.67 13.2102 12 13.2102C12.33 13.2102 12.65 13.1702 12.95 13.0802C13.11 13.4802 13.2 13.9302 13.2 14.4002Z" />
<path d="M15.5999 9.6C15.5999 10.07 15.5099 10.52 15.3499 10.93C14.9399 11.97 14.0499 12.78 12.9499 13.08C12.6499 13.16 12.3299 13.21 11.9999 13.21C11.6699 13.21 11.3499 13.17 11.0499 13.08C9.94987 12.78 9.0599 11.98 8.6499 10.93C8.4899 10.52 8.3999 10.07 8.3999 9.6C8.3999 7.61 10.0099 6 11.9999 6C13.9899 6 15.5999 7.61 15.5999 9.6Z" />
<path opacity="0.4" d="M18 14.3999C18 16.3899 16.39 17.9999 14.4 17.9999C13.48 17.9999 12.64 17.6499 12 17.0799C12.74 16.4299 13.2 15.4699 13.2 14.3999C13.2 13.9299 13.11 13.4799 12.95 13.0699C14.05 12.7699 14.94 11.9699 15.35 10.9199C16.87 11.3399 18 12.7399 18 14.3999Z" />
</svg>

<?xml version="1.0" encoding="UTF-8"?>
<svg width="24" height="24" viewBox="0 0 24 24" xmlns="http://www.w3.org/2000/svg">
 <path d="m16.19 2h-8.37c-3.65 0-5.82 2.17-5.82 5.81v8.37c0 3.64 2.17 5.81 5.81 5.81h8.37c3.64 0 5.81-2.17 5.81-5.81v-8.37c0.01-3.64-2.16-5.81-5.8-5.81z" opacity=".4"/>
 <path d="m13.2 14.4c0 1.06-0.46 2.02-1.2 2.68-0.64 0.58-1.48 0.92-2.4 0.92-1.99 0-3.6-1.61-3.6-3.6 0-1.66 1.13-3.06 2.65-3.47 0.41 1.04 1.3 1.85 2.4 2.15 0.3 0.08 0.62 0.13 0.95 0.13s0.65-0.04 0.95-0.13c0.16 0.4 0.25 0.85 0.25 1.32z" opacity=".6"/>
 <path d="m15.6 9.6c0 0.47-0.09 0.92-0.25 1.33-0.41 1.04-1.3 1.85-2.4 2.15-0.3 0.08-0.62 0.13-0.95 0.13s-0.65-0.04-0.95-0.13c-1.1-0.3-1.99-1.1-2.4-2.15-0.16-0.41-0.25-0.86-0.25-1.33 0-1.99 1.61-3.6 3.6-3.6s3.6 1.61 3.6 3.6z"/>
 <path d="m18 14.4c0 1.99-1.61 3.6-3.6 3.6-0.92 0-1.76-0.35-2.4-0.92 0.74-0.65 1.2-1.61 1.2-2.68 0-0.47-0.09-0.92-0.25-1.33 1.1-0.3 1.99-1.1 2.4-2.15 1.52 0.42 2.65 1.82 2.65 3.48z" opacity=".4"/>
</svg>
